site-1/img/b-logo-right.svg

<svg width="464" height="260pt" viewBox="0 0 348 260" xmlns="http://www.w3.org/2000/svg"><path fill="#507fe1" d="M80.19 94.24c2.66-7.77 10.53-13.33 18.76-13.21 51.68-.07 103.36 0 155.05-.04 18.2-.45 36.56 5.74 50.57 17.42 10.68 8.71 18.84 20.41 23.52 33.37 1.92 5.05 2.71 10.42 4.15 15.61 1.02 5.84.87 11.84.4 17.74-2.03 10.97-5 21.98-10.95 31.54-12.99 22.28-37.92 36.82-63.68 37.33H80v-40c59.02 0 118.03-.01 177.05.01 6.36.27 11.93-3.52 16.86-7.1 9.37-7.62 14.25-19.98 13.72-31.93.6-17.75-15.47-35.23-33.63-33.99-51.36.02-102.71.01-154.07.01-5.28.09-10.74-1.6-14.54-5.4-5.85-5.21-7.87-14.05-5.2-21.36z"/></svg>

<?xml version="1.0" encoding="UTF-8" ?>
<!DOCTYPE svg PUBLIC "-//W3C//DTD SVG 1.1//EN" "http://www.w3.org/Graphics/SVG/1.1/DTD/svg11.dtd">
<svg width="348pt" height="260pt" viewBox="0 0 348 260" version="1.1" xmlns="http://www.w3.org/2000/svg">
<g id="#507fe1ff">
<path fill="#507fe1" opacity="1.00" d=" M 80.19 94.24 C 82.85 86.47 90.72 80.91 98.95 81.03 C 150.63 80.96 202.31 81.03 254.00 80.99 C 272.20 80.54 290.56 86.73 304.57 98.41 C 315.25 107.12 323.41 118.82 328.09 131.78 C 330.01 136.83 330.80 142.20 332.24 147.39 C 333.26 153.23 333.11 159.23 332.64 165.13 C 330.61 176.10 327.64 187.11 321.69 196.67 C 308.70 218.95 283.77 233.49 258.01 234.00 C 198.67 234.00 139.34 234.00 80.00 234.00 C 80.00 220.67 80.00 207.33 80.00 194.00 C 139.02 194.00 198.03 193.99 257.05 194.01 C 263.41 194.28 268.98 190.49 273.91 186.91 C 283.28 179.29 288.16 166.93 287.63 154.98 C 288.23 137.23 272.16 119.75 254.00 120.99 C 202.64 121.01 151.29 121.00 99.93 121.00 C 94.65 121.09 89.19 119.40 85.39 115.60 C 79.54 110.39 77.52 101.55 80.19 94.24 Z" />
</g>
</svg>
